!!!COM: Emmanuel Chabrier
!!!CNT: Francais
!!!TXO: Francais
!!!OTL: "Villanelle des petits canards"
!!!LYR: Ge/rard
!!!OPR: 
!!!OPS: 
!!!ONM: 
!!!ENC: Emily Thomas
!!!YOR: CD Sheet Music French Art Songs, The Ultimate Collection
!!!YOR: CD Sheet Music, LLC 2003
!!!ODT: 1889/
!!NB: Vocal melody and text encoded.
**kern	**silbe
=0	=0
*clefG2	*
*k[b-]	*
*M2/4	*
*MM[All-poco mosso]	*
2r	.
=2	=2
2r	.
=3	=3
2r	.
=4	=4
4r	.
8r	.
{8a	{Ils
=5	=5
8g	vont,
8r	.
8r	.
16f	les
16g	pe-
=6	=6
8a	-tits
8b-	ca-
8cc}	-nards,}
8r	.
=7	=7
{8b-	{Tout
8ccq	au
8b-	|
8a	bord
8a	de
=8	=8
8g	la
8aq	ri-
8g	|
8dd	-vie\-
8d}	-re,}
=9	=9
{4f	{Com-
8a	-me
8cc	de
=10	=10
8a	bons
16g	cam-
16a	-pa-
8aq	-gnards!
[4f	|
=11	=11
4f_	|
8f]}	|}
8r	.
=12	=12
2r	.
=13	=13
{8a	{Bar-
8a	-bo-
8g	-teurs
16r	.
16e	et
=14	=14
8g	fre/-
8cc	-til-
8a	-lards,
8a	Heu-
=15	=15
8g#	-reux
16g#	de
16a	trou-
8bn	-bler
8cc#	l'eau
=16	=16
8cc#q	clai-
8bn	|
8a}	-re,}
8r	.
{8a	{Ils
=17	=17
8g	vont,
8r	.
8r	.
16f	les
16g	pe-
=18	=18
8a	-tits
8b-	ca-
8cc}	-nards,}
8r	.
=19	=19
8r	.
{8cc	{Ils
8a	sem-
16g	-blent
16a	un
=20	=20
8b-	peu
8cc	jo-
8dd}	-bards,}
8r	.
=21	=21
{8cc	{Mais
8ddq	ils
8cc	|
8b-	sont
8ccq	a\
8b-	|
=22	=22
8a	leur
8bnq	af-
8a	|
8ee	-fai-
8dd}	-re,}
=23	=23
{4f	{Com-
8a	-me
8cc	de
=24	=24
8a	bons
16g	cam-
16a	-pa-
8aq	-gnards!
[4f	|
=25	=25
4f_	|
8f]}	|}
8r	.
=26	=26
4r	.
8r	.
{8cc	{Dans
=27	=27
8ee-	l'eau
8r	.
16e-	plei-
16e-	-ne
16e-	de
16e-	te\-
=28	=28
8d}	-tards,}
8r	.
8r	.
{8d	{Ou\-
=29	=29
8a	tremble
8d	une
8a	her-
16d	-be
16d	le/-
=30	=30
8a	-ge\-
8d}	-re,}
8r	.
{8b-	{Ils
=31	=31
8a	vont,
8r	.
8r	.
16g	les
16a	pe-
=32	=32
8b-	-tits
8cc	ca-
8dd}	-nards,}
8r	.
=33	=33
{8dd	{Mar-
8f#	-chant
8r	.
8e	par
=34	=34
8bn	grou-
16a	=pes
16g#	e/-
8a}	-pars,}
8r	.
=35	=35
{8d	{D'une
8d	al-
8d	-lu-
8d	-re
=36	=36
8d	re/-
8d	-gu-
8d	-lie\-
8d}	-re,}
=37	=37
{4d	{Com-
8c	-me
8c	de
=38	=38
8c	bons
16c	cam-
16c	-pa-
[4f	-gnards!
=39	=39
4f_	|
8f]}	|}
8r	.
=40	=40
2r	.
=41	=41
{8a	{Dans
8a	le
8g	beau
8e	vert
=42	=42
8g	d'e/-
8cc	-pi-
8a	-nards
16a	De
16a	l'hum-
=43	=43
8.g#	-i-
16a	-de
8bn	cres-
8cc#	son-
=44	=44
8cc#q	-nie\-
8bn	|
8a}	-re,}
8r	.
{8a	{Ils
=45	=45
8g	vont,
8r	.
8r	.
16f	les
16g	pe-
=46	=46
8a	-tits
8b-	ca-
8cc}	-nards,}
8r	.
=47	=47
8r	.
{8cc	{Et
8a	quoi
16g	qu'un
16a	peu
=48	=48
8b-	go-
8cc	-gue-
8dd}	-nards,}
8r	.
=49	=49
{8cc	{Ils
8ddq	sont
8cc	|
8b-	d'hu-
8ccq	-meur
8b-	|
=50	=50
8a	de/-
8bnq	-bon-
8a	|
8ee	-nai-
8dd}	-re}
=51	=51
{4f	{Com-
8a	-me
8cc	de
=52	=52
8a	bons
16g	cam-
16a	-pa-
[4f	-gnards!
=53	=53
4f_	|
8f]}	|}
8r	.
=54	=54
4r	.
8r	.
{8cc	{Fai-
=55	=55
8ee-	-sant,
8r	.
16e-	en
16e-	cer-
16e-	-cles
16e-	ba-
=56	=56
8d}	-vards,}
8r	.
8r	.
{16d	{Un
16d	vrai
=57	=57
8a	bruit
8d	de
8a	pe/-
8d	-tau-
=58	=58
8a	-die\-
8d}	-re,}
8r	.
{8b-	{Ils
=59	=59
8a	vont,
8r	.
8r	.
16g	les
16a	pe-
=60	=60
8b-	-tits
8cc	ca-
8dd}	-nards,}
8r	.
=61	=61
{8dd	{Do-
8f#	-dus,
8r	.
8e	lus-
=62	=62
8bn	-tre/s
16a	et
16g#	gail-
8a}	-lards,}
8r	.
=63	=63
{8d	{Ils
8d	sont
8d	gais
8d	a\
=64	=64
8d	leur
8d	ma-
8d	-nie\-
8d	-re,
=65	=65
4d	Com-
8c	-me
8c	de
=66	=66
8c	bons
16c	cam-
16c	-pa-
8f}	-gnards!}
8r	.
=67	=67
{4dd	{A-
4cc	-mou-
=68	=68
[2f	-reux
=69	=69
8f]	|
8a	et
8f	na-
8d	-sil-
=70	=70
[2Bn	-lards,
=71	=71
8Bn]}	|}
{8Bn	{Cha-
[4e	-cun
=72	=72
4e]	|
8g#	a-
8f#	-vec
=73	=73
8e	sa
8a	com-
[4a	-me\-
=74	=74
4a]	|
8a}	-re,}
{8a	{Ils
=75	=75
8g	vont,
8r	.
8r	.
8dd	ils
=76	=76
8cc	vont,
8r	.
8r	.
8a	ils
=77	=77
8g}	vont,}
8r	.
8r	.
{16f	{les
16g	-pe-
=78	=78
8a	-tits
8b-	ca-
8cc}	-nards,}
8r	.
=79	=79
{4f	{Com-
8a	-me
8cc	de
=80	=80
2a	bons
=81	=81
4g	cam-
4a	-pa-
=82	=82
8aq	-gnards!
[4f	|
8f]}	|}
8r	.
==	==
*-	*-
